packages/core/src/svgs/tokens/branded/DEFX.svg

<svg width="24" height="24" viewBox="0 0 24 24" fill="none" xmlns="http://www.w3.org/2000/svg">
<path d="M7.24999 6L11.925 8.85L16.81 6L22 8.98499V15.05L16.815 18L11.92 15.31L7.24999 18L2 15.05V8.98499L7.24999 6ZM16.25 16.71V12.335L7.74999 7.34V11.6849L16.25 16.71ZM6.74999 11.6799V7.29999L2.99999 9.515V13.9899L6.74999 11.6799ZM3.5 14.78L7.27998 16.9999L11 14.77L7.24999 12.5L3.5 14.78ZM17.2499 12.325V16.695L20.9999 14.525V10.05L17.2499 12.325ZM20.5 9.24999L16.81 6.99999L13 9.24999L16.81 11.415L20.5 9.24999Z" fill="url(#paint0_linear_364_6858)"/>
<defs>
<linearGradient id="paint0_linear_364_6858" x1="22.035" y1="12.025" x2="2" y2="12.025" gradientUnits="userSpaceOnUse">
<stop stop-color="#2D73BA"/>
<stop offset="1" stop-color="#4BA69B"/>
</linearGradient>
</defs>
</svg>

<svg xmlns="http://www.w3.org/2000/svg" width="24" height="24" fill="none" viewBox="0 0 24 24">
    <path fill="url(#DEFX__a)" d="m7.25 6 4.675 2.85L16.81 6 22 8.985v6.065L16.815 18l-4.895-2.69L7.25 18 2 15.05V8.985zm9 10.71v-4.375L7.75 7.34v4.345zm-9.5-5.03V7.3L3 9.515v4.475zm-3.25 3.1L7.28 17 11 14.77 7.25 12.5zm13.75-2.455v4.37l3.75-2.17V10.05zM20.5 9.25 16.81 7 13 9.25l3.81 2.165z"/>
    <defs>
        <linearGradient id="DEFX__a" x1="22.035" x2="2" y1="12.025" y2="12.025" gradientUnits="userSpaceOnUse">
            <stop stop-color="#2D73BA"/>
            <stop offset="1" stop-color="#4BA69B"/>
        </linearGradient>
    </defs>
</svg>
